resources/images/winner-badge-second.svg

<svg viewBox="0 0 48 48" fill="none" xmlns="http://www.w3.org/2000/svg">
<path d="M24.0342 48C36.9497 48 47.4199 37.5298 47.4199 24.6142C47.4199 11.6987 36.9497 1.22852 24.0342 1.22852C11.1186 1.22852 0.648438 11.6987 0.648438 24.6142C0.648438 37.5298 11.1186 48 24.0342 48Z" fill="#CECECE"/>
<path d="M23.9916 45.4582C36.8838 45.4582 47.335 35.282 47.335 22.7291C47.335 10.1762 36.8838 0 23.9916 0C11.0994 0 0.648193 10.1762 0.648193 22.7291C0.648193 35.282 11.0994 45.4582 23.9916 45.4582Z" fill="#E0E0E0"/>
<path d="M24.0781 40.7129C33.6244 40.7129 41.3633 32.974 41.3633 23.4277C41.3633 13.8814 33.6244 6.14258 24.0781 6.14258C14.5318 6.14258 6.79297 13.8814 6.79297 23.4277C6.79297 32.974 14.5318 40.7129 24.0781 40.7129Z" fill="#898989"/>
<path d="M23.9934 38.0862C33.4929 38.0862 41.1938 30.9354 41.1938 22.1144C41.1938 13.2934 33.4929 6.14258 23.9934 6.14258C14.4939 6.14258 6.79297 13.2934 6.79297 22.1144C6.79297 30.9354 14.4939 38.0862 23.9934 38.0862Z" fill="#9E9E9E"/>
<g filter="url(#filter0_b_23916_75053)">
<path d="M28.2364 18.78C28.2364 19.2867 28.1364 19.7733 27.9364 20.24C27.7364 20.7067 27.4764 21.16 27.1564 21.6C26.8364 22.0267 26.4764 22.44 26.0764 22.84C25.6764 23.24 25.2831 23.62 24.8964 23.98C24.6964 24.1667 24.4764 24.38 24.2364 24.62C24.0097 24.8467 23.7897 25.08 23.5764 25.32C23.3631 25.56 23.1697 25.7867 22.9964 26C22.8364 26.2 22.7364 26.3667 22.6964 26.5H28.6564V29H19.4164C19.3897 28.8533 19.3764 28.6667 19.3764 28.44C19.3764 28.2133 19.3764 28.0533 19.3764 27.96C19.3764 27.32 19.4764 26.7333 19.6764 26.2C19.8897 25.6667 20.1631 25.1733 20.4964 24.72C20.8297 24.2533 21.2031 23.82 21.6164 23.42C22.0431 23.02 22.4631 22.62 22.8764 22.22C23.1964 21.9133 23.4964 21.6267 23.7764 21.36C24.0564 21.08 24.3031 20.8133 24.5164 20.56C24.7297 20.2933 24.8964 20.0333 25.0164 19.78C25.1364 19.5133 25.1964 19.2467 25.1964 18.98C25.1964 18.3933 25.0297 17.98 24.6964 17.74C24.3631 17.5 23.9497 17.38 23.4564 17.38C23.0964 17.38 22.7564 17.44 22.4364 17.56C22.1297 17.6667 21.8431 17.8 21.5764 17.96C21.3231 18.1067 21.1031 18.26 20.9164 18.42C20.7297 18.5667 20.5897 18.6867 20.4964 18.78L19.0164 16.7C19.6031 16.1533 20.2831 15.7067 21.0564 15.36C21.8431 15 22.6831 14.82 23.5764 14.82C24.3897 14.82 25.0897 14.9133 25.6764 15.1C26.2631 15.2867 26.7431 15.5533 27.1164 15.9C27.5031 16.2333 27.7831 16.6467 27.9564 17.14C28.1431 17.62 28.2364 18.1667 28.2364 18.78Z" fill="#EDEDED"/>
</g>
<defs>
<filter id="filter0_b_23916_75053" x="5.01636" y="0.820007" width="37.6401" height="42.18" filterUnits="userSpaceOnUse" color-interpolation-filters="sRGB">
<feFlood flood-opacity="0" result="BackgroundImageFix"/>
<feGaussianBlur in="BackgroundImageFix" stdDeviation="7"/>
<feComposite in2="SourceAlpha" operator="in" result="effect1_backgroundBlur_23916_75053"/>
<feBlend mode="normal" in="SourceGraphic" in2="effect1_backgroundBlur_23916_75053" result="shape"/>
</filter>
</defs>
</svg>

<svg viewBox="0 0 48 48" fill="none" xmlns="http://www.w3.org/2000/svg"><path d="M24.034 48C36.95 48 47.42 37.53 47.42 24.614 47.42 11.7 36.95 1.23 24.034 1.23 11.12 1.229.648 11.699.648 24.614.648 37.53 11.118 48 24.034 48Z" fill="#CECECE"/><path d="M23.992 45.458c12.892 0 23.343-10.176 23.343-22.729C47.335 10.176 36.884 0 23.992 0 11.099 0 .648 10.176.648 22.73c0 12.552 10.451 22.728 23.344 22.728Z" fill="#E0E0E0"/><path d="M24.078 40.713c9.546 0 17.285-7.739 17.285-17.285 0-9.547-7.739-17.285-17.285-17.285S6.793 13.88 6.793 23.428c0 9.546 7.739 17.285 17.285 17.285Z" fill="#898989"/><path d="M23.993 38.086c9.5 0 17.2-7.15 17.2-15.972 0-8.82-7.7-15.971-17.2-15.971s-17.2 7.15-17.2 15.971 7.7 15.972 17.2 15.972Z" fill="#9E9E9E"/><g filter="url(#filter0_b_23916_75053)"><path d="M28.236 18.78c0 .507-.1.993-.3 1.46a7 7 0 0 1-.78 1.36c-.32.427-.68.84-1.08 1.24s-.793.78-1.18 1.14c-.2.187-.42.4-.66.64-.226.227-.446.46-.66.7-.213.24-.406.467-.58.68-.16.2-.26.367-.3.5h5.96V29h-9.24a3.22 3.22 0 0 1-.04-.56v-.48c0-.64.1-1.227.3-1.76a6.666 6.666 0 0 1 .82-1.48c.334-.467.707-.9 1.12-1.3.427-.4.847-.8 1.26-1.2l.9-.86c.28-.28.527-.547.74-.8.214-.267.38-.527.5-.78.12-.267.18-.533.18-.8 0-.587-.166-1-.5-1.24-.333-.24-.746-.36-1.24-.36-.36 0-.7.06-1.02.18-.306.107-.593.24-.86.4-.253.147-.473.3-.66.46a4.94 4.94 0 0 0-.42.36l-1.48-2.08a7.414 7.414 0 0 1 2.04-1.34 5.984 5.984 0 0 1 2.52-.54c.814 0 1.514.093 2.1.28.587.187 1.067.453 1.44.8.387.333.667.747.84 1.24.187.48.28 1.027.28 1.64Z" fill="#EDEDED"/></g><defs><filter id="filter0_b_23916_75053" x="5.01636" y="0.820007" width="37.6401" height="42.18" filterUnits="userSpaceOnUse" color-interpolation-filters="sRGB"><feFlood flood-opacity="0" result="BackgroundImageFix"/><feGaussianBlur in="BackgroundImageFix" stdDeviation="7"/><feComposite in2="SourceAlpha" operator="in" result="effect1_backgroundBlur_23916_75053"/><feBlend mode="normal" in="SourceGraphic" in2="effect1_backgroundBlur_23916_75053" result="shape"/></filter></defs></svg>
